packages/icons/src/SVG/double-chevron-up.svg

<svg width="12" height="12" viewBox="0 0 12 12" fill="none" xmlns="http://www.w3.org/2000/svg">
<path d="M1.59893 11.5L6 7.19249L10.4011 11.5L11.5 10.5079L6 5L0.5 10.5079L1.59893 11.5Z" fill="#4C505B"/>
<path d="M1.59893 7L6 2.69249L10.4011 7L11.5 6.00792L6 0.5L0.5 6.00792L1.59893 7Z" fill="#4C505B"/>
</svg>

<!-- Generated by IcoMoon.io -->
<svg version="1.1" xmlns="http://www.w3.org/2000/svg" width="12" height="12" viewBox="0 0 12 12">
<title>double-chevron-up</title>
<path d="M1.599 11.5l4.401-4.308 4.401 4.308 1.099-0.992-5.5-5.508-5.5 5.508 1.099 0.992z"></path>
<path d="M1.599 7l4.401-4.308 4.401 4.308 1.099-0.992-5.5-5.508-5.5 5.508 1.099 0.992z"></path>
</svg>
